;FLAVOR:Marlin
M117 Time Left 3h02m36s
;Filament used: 7.72021m
;Layer height: 0.2
;MINX:54.263
;MINY:58.82
;MINZ:0.16
;MAXX:158.077
;MAXY:173.112
;MAXZ:15.56
;POSTPROCESSED
;Generated with Cura_SteamEngine 4.6.2
M140 S60
M105
M190 S60
M104 S210
M105
M109 S210
M82 ;absolute extrusion mode
; Ender 3 Custom Start G-code
G92 E0 ; Reset Extruder
G28 ; Home all axes
G1 Z2.0 F3000 ; Move Z Axis up little to prevent scratching of Heat Bed
G1 X0.1 Y20 Z0.3 F5000.0 ; Move to start position
G1 X0.1 Y200.0 Z0.3 F1500.0 E15 ; Draw the first line
G1 X0.4 Y200.0 Z0.3 F5000.0 ; Move to side a little
G1 X0.4 Y20 Z0.3 F1500.0 E30 ; Draw the second line
G92 E0 ; Reset Extruder
G1 Z2.0 F3000 ; Move Z Axis up little to prevent scratching of Heat Bed
G1 X5 Y20 Z0.3 F5000.0 ; Move over to prevent blob squish
G92 E0
G92 E0
G1 F2700 E-7
;LAYER_COUNT:79
;LAYER:0
M107
G0 F6000 X145.87 Y59.712 Z0.16
;TYPE:SKIRT
G1 F2700 E0
G1 F1200 X146.772 Y59.764 E0.03636
G1 X147.686 Y59.9 E0.07355
G1 X148.076 Y59.976 E0.08954
G1 X148.955 Y60.188 E0.12593
G1 X149.811 Y60.476 E0.16228
G1 X150.557 Y60.8 E0.19501
G1 X150.831 Y60.932 E0.20725
G1 X151.627 Y61.36 E0.24362
G1 X152.382 Y61.856 E0.27998
G1 X152.748 Y62.134 E0.29847
G1 X152.937 Y62.284 E0.30818
G1 X153.62 Y62.877 E0.34459
G1 X154.247 Y63.527 E0.38093
G1 X154.844 Y64.271 E0.41932
G1 X155.091 Y64.61 E0.4362
G1 X155.591 Y65.363 E0.47258
G1 X156.021 Y66.158 E0.50895
G1 X156.381 Y66.987 E0.54533
G1 X156.56 Y67.497 E0.56708
G1 X156.681 Y67.873 E0.58297
G1 X156.919 Y68.745 E0.61935
G1 X157.08 Y69.635 E0.65575
G1 X157.154 Y70.396 E0.68652
G1 X157.173 Y70.715 E0.69938
G1 X157.19 Y71.184 E0.71827
G1 X157.197 Y71.765 E0.74165
G1 X157.195 Y104.032 E2.04023
G1 X157.185 Y104.765 E2.06973
G1 X157.123 Y105.76 E2.10985
G1 X156.983 Y107.012 E2.16055
G1 X156.711 Y109.683 E2.2686
G1 X156.525 Y112.219 E2.37094
G1 X156.412 Y114.749 E2.47286
G1 X156.369 Y117.318 E2.57626
G1 X156.398 Y119.807 E2.67644
G1 X156.502 Y122.379 E2.78003
G1 X156.665 Y124.806 E2.87793
G1 X156.811 Y126.621 E2.95121
G1 X156.843 Y127.273 E2.97748
G1 X156.855 Y128.115 E3.01137
G1 X156.853 Y160.129 E4.29976
G1 X156.843 Y160.899 E4.33076
G1 X156.78 Y161.905 E4.37132
G1 X156.756 Y162.119 E4.37999
G1 X156.616 Y163.012 E4.41636
G1 X156.438 Y163.748 E4.44684
G1 X156.382 Y163.947 E4.45516
G1 X156.099 Y164.806 E4.49156
G1 X155.791 Y165.531 E4.52326
G1 X155.703 Y165.718 E4.53158
G1 X155.283 Y166.518 E4.56794
G1 X154.569 Y167.581 E4.61947
G1 X154.366 Y167.846 E4.63291
G1 X153.785 Y168.539 E4.6693
G1 X153.145 Y169.177 E4.70567
G1 X152.276 Y169.888 E4.75086
G1 X151.984 Y170.101 E4.7654
G1 X151.231 Y170.601 E4.80178
G1 X150.436 Y171.032 E4.83817
G1 X149.798 Y171.317 E4.8663
G1 X149.519 Y171.43 E4.87841
G1 X148.666 Y171.732 E4.91483
G1 X147.791 Y171.957 E4.95119
G1 X146.71 Y172.125 E4.99521
G1 X146.275 Y172.169 E5.01281
G1 X145.411 Y172.22 E5.04764
G1 X144.563 Y172.232 E5.08177
G1 X89.519 Y172.23 E7.297
G1 X88.769 Y172.219 E7.32719
G1 X87.765 Y172.155 E7.36768
G1 X87.545 Y172.13 E7.37659
G1 X86.652 Y171.988 E7.41298
G1 X85.775 Y171.768 E7.44937
G1 X84.804 Y171.424 E7.49083
G1 X84.394 Y171.255 E7.50867
G1 X83.575 Y170.874 E7.54503
G1 X82.792 Y170.422 E7.58141
G1 X82.034 Y169.888 E7.61873
G1 X81.804 Y169.71 E7.63043
G1 X81.114 Y169.126 E7.66681
G1 X80.216 Y168.181 E7.71927
G1 X79.56 Y167.392 E7.76057
G1 X78.824 Y166.47 E7.80805
G1 X77.207 Y164.555 E7.90892
G1 X75.497 Y162.647 E8.01203
G1 X73.766 Y160.819 E8.11335
G1 X71.942 Y159 E8.21702
G1 X70.114 Y157.276 E8.31814
G1 X68.212 Y155.583 E8.42062
G1 X66.276 Y153.954 E8.52244
G1 X64.28 Y152.369 E8.62502
G1 X62.255 Y150.853 E8.72682
G1 X61.733 Y150.484 E8.75255
G1 X60.588 Y149.654 E8.80946
G1 X60.121 Y149.295 E8.83317
G1 X59.941 Y149.148 E8.84252
G1 X59.397 Y148.67 E8.87166
G1 X59.241 Y148.523 E8.88029
G1 X58.696 Y147.969 E8.91157
G1 X58.542 Y147.8 E8.92077
G1 X58.069 Y147.242 E8.95021
G1 X57.924 Y147.058 E8.95963
G1 X57.472 Y146.438 E8.99051
G1 X57.328 Y146.224 E9.00089
G1 X56.858 Y145.454 E9.0372
G1 X56.751 Y145.26 E9.04612
G1 X56.2 Y144.092 E9.09809
G1 X55.989 Y143.56 E9.12112
G1 X55.693 Y142.706 E9.1575
G1 X55.45 Y141.708 E9.19883
G1 X55.329 Y141.074 E9.22481
G1 X55.199 Y140.179 E9.26121
G1 X55.15 Y139.357 E9.29435
G1 X55.143 Y138.998 E9.3088
G1 X55.179 Y137.916 E9.35237
G1 X55.305 Y136.475 E9.41058
G1 X55.376 Y135.782 E9.43862
G1 X55.563 Y133.259 E9.54043
G1 X55.679 Y130.729 E9.64236
G1 X55.723 Y128.194 E9.74439
G1 X55.696 Y125.664 E9.84622
G1 X55.597 Y123.159 E9.94711
G1 X55.306 Y119.243 E10.10514
G1 X55.253 Y118.688 E10.12758
G1 X55.207 Y117.838 E10.16184
G1 X55.203 Y117.51 E10.17504
G1 X55.232 Y116.598 E10.21176
G1 X55.251 Y116.352 E10.22169
G1 X55.366 Y115.423 E10.25937
G1 X55.42 Y115.106 E10.27231
G1 X55.614 Y114.21 E10.3092
G1 X55.674 Y113.983 E10.31865
G1 X55.886 Y113.286 E10.34797
G1 X55.963 Y113.061 E10.35754
G1 X56.293 Y112.219 E10.39394
G1 X56.584 Y111.618 E10.42081
G1 X56.887 Y111.041 E10.44704
G1 X57.342 Y110.26 E10.48341
G1 X57.728 Y109.699 E10.51082
G1 X58.15 Y109.145 E10.53885
G1 X58.333 Y108.923 E10.55043
G1 X60.044 Y106.863 E10.6582
G1 X61.602 Y104.875 E10.75985
G1 X63.108 Y102.835 E10.86189
G1 X64.585 Y100.717 E10.96581
G1 X65.971 Y98.601 E11.06761
G1 X67.275 Y96.481 E11.16778
G1 X68.578 Y94.224 E11.27266
G1 X69.762 Y92.028 E11.37306
G1 X70.924 Y89.722 E11.47699
G1 X71.98 Y87.469 E11.57712
G1 X73.002 Y85.118 E11.68029
G1 X73.956 Y82.744 E11.78326
G1 X74.82 Y80.401 E11.88376
G1 X75.648 Y77.948 E11.98795
G1 X76.379 Y75.559 E12.0885
G1 X77.052 Y73.116 E12.19048
G1 X77.67 Y70.598 E12.29482
G1 X78.012 Y69.02 E12.3598
G1 X78.108 Y68.611 E12.37671
G1 X78.427 Y67.527 E12.42218
G1 X78.542 Y67.203 E12.43602
G1 X78.881 Y66.366 E12.47236
G1 X79.294 Y65.561 E12.50877
G1 X79.89 Y64.635 E12.55309
G1 X80.122 Y64.314 E12.56903
G1 X80.683 Y63.606 E12.60539
G1 X81.305 Y62.95 E12.64177
G1 X81.871 Y62.443 E12.67235
G1 X82.055 Y62.29 E12.68198
G1 X82.775 Y61.743 E12.71837
G1 X83.54 Y61.262 E12.75474
G1 X84.36 Y60.844 E12.79178
G1 X84.712 Y60.684 E12.80734
G1 X85.551 Y60.347 E12.84373
G1 X86.416 Y60.085 E12.8801
G1 X87.711 Y59.842 E12.93313
G1 X88.181 Y59.785 E12.95218
G1 X89.247 Y59.712 E12.99518
G1 X90.095 Y59.7 E13.02931
G1 X144.994 Y59.701 E15.23871
G1 X145.143 Y59.703 E15.24471
G0 F1080 X145.87 Y59.712
G0 F6000 X145.876 Y59.272
G1 F1200 X146.797 Y59.324 E15.28183
G1 X147.77 Y59.468 E15.32141
G1 X148.16 Y59.544 E15.33741
G1 X149.058 Y59.759 E15.37457
G1 X149.933 Y60.052 E15.4117
G1 X150.748 Y60.403 E15.44741
G1 X151.022 Y60.535 E15.45965
G1 X151.835 Y60.972 E15.4968
G1 X152.608 Y61.477 E15.53396
G1 X153.022 Y61.789 E15.55482
G1 X153.211 Y61.939 E15.56453
G1 X153.909 Y62.544 E15.60171
G1 X154.551 Y63.207 E15.63885
G1 X155.2 Y64.012 E15.68046
G1 X155.447 Y64.351 E15.69734
G1 X155.957 Y65.12 E15.73448
G1 X156.4 Y65.93 E15.77164
G1 X156.771 Y66.776 E15.80881
G1 X156.979 Y67.362 E15.83384
G1 X157.1 Y67.738 E15.84973
G1 X157.344 Y68.629 E15.88691
G1 X157.511 Y69.537 E15.92407
G1 X157.593 Y70.37 E15.95775
G1 X157.612 Y70.689 E15.97061
G1 X157.63 Y71.178 E15.99031
G1 X157.637 Y71.765 E16.01393
G1 X157.635 Y104.038 E17.31275
G1 X157.625 Y104.771 E17.34225
G1 X157.56 Y105.809 E17.38411
G1 X157.409 Y107.161 E17.43886
G1 X157.149 Y109.723 E17.5425
G1 X156.965 Y112.235 E17.64386
G1 X156.852 Y114.741 E17.74482
G1 X156.809 Y117.32 E17.84862
G1 X156.838 Y119.819 E17.9492
G1 X156.94 Y122.331 E18.05038
G1 X157.102 Y124.745 E18.14775
G1 X157.25 Y126.586 E18.22208
G1 X157.283 Y127.266 E18.24948
G1 X157.295 Y128.115 E18.28365
G1 X157.293 Y160.134 E19.57225
G1 X157.283 Y160.904 E19.60324
G1 X157.218 Y161.954 E19.64557
G1 X157.194 Y162.168 E19.65424
G1 X157.051 Y163.08 E19.69139
G1 X156.861 Y163.868 E19.72401
G1 X156.805 Y164.067 E19.73233
G1 X156.517 Y164.944 E19.76948
G1 X156.189 Y165.718 E19.80331
G1 X156.101 Y165.905 E19.81163
G1 X155.672 Y166.723 E19.8488
G1 X154.918 Y167.849 E19.90334
G1 X154.715 Y168.114 E19.91678
G1 X154.123 Y168.821 E19.95389
G1 X153.471 Y169.475 E19.99105
G1 X152.535 Y170.243 E20.03978
G1 X152.243 Y170.456 E20.05432
G1 X151.474 Y170.967 E20.09148
G1 X150.664 Y171.41 E20.12864
G1 X149.963 Y171.724 E20.15955
G1 X149.684 Y171.837 E20.17166
G1 X148.814 Y172.147 E20.20883
G1 X147.92 Y172.379 E20.246
G1 X146.755 Y172.563 E20.29347
G1 X146.32 Y172.607 E20.31107
G1 X145.418 Y172.66 E20.34743
G1 X144.563 Y172.672 E20.38184
G1 X89.513 Y172.67 E22.59732
G1 X88.763 Y172.659 E22.6275
G1 X87.715 Y172.592 E22.66977
G1 X87.495 Y172.567 E22.67868
G1 X86.583 Y172.423 E22.71583
G1 X85.687 Y172.201 E22.75298
G1 X84.637 Y171.831 E22.79779
G1 X84.227 Y171.662 E22.81563
G1 X83.389 Y171.273 E22.85282
G1 X82.588 Y170.814 E22.88997
G1 X81.765 Y170.236 E22.93044
G1 X81.535 Y170.058 E22.94215
G1 X80.83 Y169.462 E22.9793
G1 X79.879 Y168.463 E23.03481
G1 X79.216 Y167.666 E23.07653
G1 X78.488 Y166.754 E23.12349
G1 X76.87 Y164.838 E23.22442
G1 X75.179 Y162.952 E23.32636
G1 X73.43 Y161.105 E23.42873
G1 X71.658 Y159.337 E23.52947
G1 X69.812 Y157.596 E23.63159
G1 X67.928 Y155.919 E23.7331
G1 X65.977 Y154.277 E23.83573
G1 X64.035 Y152.736 E23.9355
G1 X61.997 Y151.209 E24.03798
G1 X61.475 Y150.84 E24.06371
G1 X60.33 Y150.01 E24.12062
G1 X59.843 Y149.636 E24.14534
G1 X59.663 Y149.489 E24.15469
G1 X59.095 Y148.99 E24.18512
G1 X58.939 Y148.843 E24.19374
G1 X58.371 Y148.265 E24.22636
G1 X58.217 Y148.096 E24.23556
G1 X57.723 Y147.514 E24.26628
G1 X57.578 Y147.33 E24.27571
G1 X57.107 Y146.683 E24.30792
G1 X56.963 Y146.469 E24.3183
G1 X56.473 Y145.666 E24.35615
G1 X56.366 Y145.472 E24.36507
G1 X55.791 Y144.254 E24.41928
G1 X55.58 Y143.722 E24.44231
G1 X55.277 Y142.85 E24.47946
G1 X55.018 Y141.79 E24.52337
G1 X54.897 Y141.156 E24.54935
G1 X54.763 Y140.243 E24.58649
G1 X54.71 Y139.366 E24.62185
G1 X54.703 Y139.007 E24.6363
G1 X54.741 Y137.878 E24.68176
G1 X54.868 Y136.43 E24.74026
G1 X54.935 Y135.776 E24.76672
G1 X55.123 Y133.24 E24.86906
G1 X55.239 Y130.702 E24.9713
G1 X55.282 Y128.191 E25.07237
G1 X55.256 Y125.686 E25.17319
G1 X55.157 Y123.18 E25.27412
G1 X54.867 Y119.269 E25.43195
G1 X54.815 Y118.729 E25.45379
G1 X54.767 Y117.843 E25.4895
G1 X54.763 Y117.515 E25.5027
G1 X54.794 Y116.564 E25.54099
G1 X54.813 Y116.318 E25.55092
G1 X54.932 Y115.349 E25.59021
G1 X54.986 Y115.032 E25.60315
G1 X55.189 Y114.098 E25.64162
G1 X55.249 Y113.871 E25.65107
G1 X55.469 Y113.143 E25.68167
G1 X55.546 Y112.918 E25.69124
G1 X55.883 Y112.059 E25.72838
G1 X56.194 Y111.414 E25.7572
G1 X56.497 Y110.837 E25.78343
G1 X56.961 Y110.039 E25.82057
G1 X57.244 Y109.62 E25.84092
G1 X57.369 Y109.444 E25.84961
G1 X57.81 Y108.867 E25.87884
G1 X57.994 Y108.642 E25.89054
G1 X59.706 Y106.581 E25.99836
G1 X61.258 Y104.601 E26.09961
G1 X62.742 Y102.592 E26.20013
G1 X64.217 Y100.476 E26.30393
G1 X65.599 Y98.365 E26.40548
G1 X66.906 Y96.241 E26.50584
G1 X68.196 Y94.006 E26.6097
G1 X69.384 Y91.804 E26.71039
G1 X70.506 Y89.577 E26.81075
G1 X71.584 Y87.276 E26.91301
G1 X72.603 Y84.93 E27.01595
G1 X73.541 Y82.597 E27.11714
G1 X74.408 Y80.248 E27.21791
G1 X75.224 Y77.828 E27.32069
G1 X75.961 Y75.42 E27.42204
G1 X76.628 Y73.001 E27.52302
G1 X77.24 Y70.507 E27.62637
G1 X77.584 Y68.919 E27.69176
G1 X77.68 Y68.51 E27.70867
G1 X78.012 Y67.38 E27.75607
G1 X78.127 Y67.056 E27.76991
G1 X78.473 Y66.2 E27.80706
G1 X78.892 Y65.378 E27.84419
G1 X79.533 Y64.378 E27.892
G1 X79.765 Y64.057 E27.90794
G1 X80.338 Y63.333 E27.94509
G1 X80.971 Y62.661 E27.98225
G1 X81.589 Y62.104 E28.01573
G1 X81.773 Y61.951 E28.02536
G1 X82.508 Y61.392 E28.06252
G1 X83.289 Y60.899 E28.09969
G1 X84.178 Y60.443 E28.1399
G1 X84.53 Y60.283 E28.15546
G1 X85.386 Y59.938 E28.19261
G1 X86.269 Y59.668 E28.22977
G1 X87.172 Y59.476 E28.26692
G1 X87.658 Y59.406 E28.28668
G1 X88.128 Y59.349 E28.30573
G1 X89.24 Y59.272 E28.35059
G1 X90.095 Y59.26 E28.38501
G1 X144.994 Y59.261 E30.5944
G1 X145.149 Y59.263 E30.60064
G0 F1080 X145.876 Y59.272
G0 F6000 X145.882 Y58.832
G1 F1200 X146.822 Y58.885 E30.63853
G1 X147.854 Y59.036 E30.68051
G1 X148.244 Y59.112 E30.6965
G1 X149.16 Y59.331 E30.7344
G1 X150.055 Y59.627 E30.77234
G1 X150.939 Y60.007 E30.81106
G1 X151.213 Y60.139 E30.8233
G1 X152.043 Y60.583 E30.86118
G1 X152.833 Y61.097 E30.89912
G1 X153.295 Y61.444 E30.92237
G1 X153.484 Y61.594 E30.93208
G1 X154.197 Y62.211 E30.97003
G1 X154.854 Y62.886 E31.00793
G1 X155.555 Y63.752 E31.05277
G1 X155.802 Y64.091 E31.06965
G1 X156.324 Y64.876 E31.10759
G1 X156.778 Y65.701 E31.14549
G1 X157.16 Y66.563 E31.18344
G1 X157.397 Y67.228 E31.21185
G1 X157.518 Y67.604 E31.22774
G1 X157.769 Y68.512 E31.26566
G1 X157.941 Y69.438 E31.30356
G1 X158.032 Y70.344 E31.34021
G1 X158.051 Y70.663 E31.35307
G1 X158.07 Y71.172 E31.37356
G1 X158.077 Y71.765 E31.39743
G1 X158.075 Y104.044 E32.69649
G1 X158.065 Y104.777 E32.72599
G1 X157.997 Y105.858 E32.76959
G1 X157.858 Y107.101 E32.81992
G1 X157.587 Y109.766 E32.92773
G1 X157.405 Y112.252 E33.02804
G1 X157.29 Y114.802 E33.13077
G1 X157.249 Y117.267 E33.22999
G1 X157.278 Y119.797 E33.33181
G1 X157.38 Y122.321 E33.43348
G1 X157.544 Y124.756 E33.53169
G1 X157.688 Y126.551 E33.60416
G1 X157.723 Y127.258 E33.63265
G1 X157.735 Y128.115 E33.66715
G1 X157.733 Y160.14 E34.95598
G1 X157.723 Y160.91 E34.98698
G1 X157.655 Y162.003 E35.03105
G1 X157.631 Y162.217 E35.03971
G1 X157.486 Y163.148 E35.07763
G1 X157.285 Y163.987 E35.11235
G1 X157.229 Y164.186 E35.12067
G1 X156.936 Y165.081 E35.15857
G1 X156.587 Y165.905 E35.19459
G1 X156.499 Y166.092 E35.20291
G1 X156.063 Y166.927 E35.24081
G1 X155.556 Y167.722 E35.27876
G1 X155.268 Y168.116 E35.2984
G1 X155.065 Y168.381 E35.31184
G1 X154.461 Y169.104 E35.34975
G1 X153.797 Y169.773 E35.38769
G1 X152.794 Y170.599 E35.43998
G1 X152.502 Y170.812 E35.45452
G1 X151.718 Y171.334 E35.49243
G1 X150.893 Y171.788 E35.53033
G1 X150.128 Y172.132 E35.56408
G1 X149.849 Y172.245 E35.5762
G1 X148.961 Y172.561 E35.61413
G1 X148.05 Y172.801 E35.65204
G1 X146.799 Y173.001 E35.70303
G1 X146.364 Y173.045 E35.72063
G1 X145.425 Y173.1 E35.75848
G1 X144.563 Y173.112 E35.79317
G1 X89.506 Y173.11 E38.00893
G1 X88.756 Y173.099 E38.03912
G1 X87.666 Y173.029 E38.08307
G1 X87.446 Y173.004 E38.09198
G1 X86.515 Y172.858 E38.12991
G1 X85.6 Y172.634 E38.16782
G1 X84.469 Y172.237 E38.21606
G1 X84.059 Y172.068 E38.23391
G1 X83.204 Y171.673 E38.27181
G1 X82.386 Y171.206 E38.30972
G1 X81.495 Y170.584 E38.35345
G1 X81.265 Y170.406 E38.36516
G1 X80.545 Y169.799 E38.40305
G1 X79.88 Y169.132 E38.44096
G1 X79.541 Y168.745 E38.46167
G1 X78.873 Y167.941 E38.50373
G1 X78.155 Y167.042 E38.55004
G1 X76.535 Y165.124 E38.65107
G1 X74.861 Y163.255 E38.75205
G1 X73.128 Y161.425 E38.85348
G1 X71.339 Y159.64 E38.95519
G1 X69.529 Y157.933 E39.05532
G1 X67.626 Y156.24 E39.15782
G1 X65.712 Y154.629 E39.25851
G1 X63.734 Y153.059 E39.36014
G1 X61.755 Y151.577 E39.45964
G1 X61.216 Y151.196 E39.4862
G1 X60.071 Y150.366 E39.54312
G1 X59.565 Y149.976 E39.56883
G1 X59.385 Y149.829 E39.57818
G1 X58.794 Y149.31 E39.60983
G1 X58.638 Y149.163 E39.61846
G1 X58.045 Y148.561 E39.65247
G1 X57.891 Y148.392 E39.66167
G1 X57.378 Y147.786 E39.69362
G1 X57.233 Y147.602 E39.70305
G1 X56.742 Y146.929 E39.73658
G1 X56.598 Y146.715 E39.74696
G1 X56.087 Y145.879 E39.78639
G1 X55.98 Y145.685 E39.79531
G1 X55.382 Y144.416 E39.85176
G1 X55.171 Y143.884 E39.8748
G1 X54.861 Y142.995 E39.91269
G1 X54.586 Y141.873 E39.95918
G1 X54.465 Y141.239 E39.98515
G1 X54.328 Y140.307 E40.02306
G1 X54.27 Y139.374 E40.06069
G1 X54.263 Y139.015 E40.07514
G1 X54.303 Y137.84 E40.12245
G1 X54.43 Y136.385 E40.18123
G1 X54.497 Y135.733 E40.20761
G1 X54.685 Y133.189 E40.31027
G1 X54.799 Y130.709 E40.41018
G1 X54.842 Y128.188 E40.51165
G1 X54.816 Y125.672 E40.61292
G1 X54.719 Y123.202 E40.7124
G1 X54.432 Y119.342 E40.86817
G1 X54.377 Y118.771 E40.89126
G1 X54.327 Y117.848 E40.92846
G1 X54.323 Y117.52 E40.94166
G1 X54.355 Y116.53 E40.98152
G1 X54.374 Y116.284 E40.99145
G1 X54.499 Y115.275 E41.03237
G1 X54.553 Y114.958 E41.04531
G1 X54.764 Y113.985 E41.08538
G1 X54.824 Y113.758 E41.09483
G1 X55.053 Y113.001 E41.12666
G1 X55.13 Y112.776 E41.13623
G1 X55.473 Y111.898 E41.17416
G1 X55.805 Y111.209 E41.20494
G1 X56.108 Y110.632 E41.23117
G1 X56.581 Y109.818 E41.26906
